Themes/OneUI/assets/svg/wallet-squircle.svg

<?xml version="1.0" encoding="UTF-8" standalone="no"?>
<svg
   width="24"
   height="24"
   viewBox="0 0 24 24"
   fill="none"
   version="1.1"
   id="svg2695"
   sodipodi:docname="wallet-squircle.svg"
   xmlns:inkscape="http://www.inkscape.org/namespaces/inkscape"
   xmlns:sodipodi="http://sodipodi.sourceforge.net/DTD/sodipodi-0.dtd"
   xmlns="http://www.w3.org/2000/svg"
   xmlns:svg="http://www.w3.org/2000/svg">
  <sodipodi:namedview
     id="namedview2697"
     pagecolor="#ffffff"
     bordercolor="#666666"
     borderopacity="1.0"
     inkscape:showpageshadow="2"
     inkscape:pageopacity="0.0"
     inkscape:pagecheckerboard="0"
     inkscape:deskcolor="#d1d1d1" />
  <g
     clip-path="url(#clip0_2_416)"
     id="g2688">
    <path
       d="M 21.19,2.66667 C 18.9867,0.45 15.6867,0 12,0 8.31,0 5.01333,0.45 2.81,2.66667 1.05667,4.43333 0,7.32333 0,12 0,16.6767 1.05667,19.5667 2.81,21.3333 5.01333,23.55 8.31333,24 12,24 15.6867,24 18.9867,23.55 21.1867,21.3333 22.9433,19.5667 24,16.6767 24,12 24,7.32333 22.9433,4.43333 21.19,2.66667 Z"
       fill="#1e48c2"
       id="path2684" />
    <path
       d="m 6.66663,17.5556 c -1.10334,0 -2,-0.8791 -2,-1.9608 V 8.40524 c 0,-1.0817 0.89666,-1.96078 2,-1.96078 H 17.3333 c 1.1033,0 2,0.87908 2,1.96078 v 7.18956 c 0,1.0817 -0.8967,1.9608 -2,1.9608 z M 10.6633,11.183 H 5.66663 v 4.085 c 0,0.6993 0.56,1.2712 1.26666,1.3072 H 6.99996 8.17329 Z M 12.4,7.42485 H 6.99996 c -0.71333,0 -1.29667,0.54902 -1.33,1.24183 L 5.66663,8.73204 v 0.4902 H 11.57 Z"
       fill="#ffffff"
       id="path2686" />
  </g>
  <defs
     id="defs2693">
    <clipPath
       id="clip0_2_416">
      <rect
         width="24"
         height="24"
         fill="#ffffff"
         id="rect2690"
         x="0"
         y="0" />
    </clipPath>
  </defs>
</svg>

<svg width="24" height="24" viewBox="0 0 24 24" fill="none" xmlns="http://www.w3.org/2000/svg">
<g clip-path="url(#clip0_2_416)">
<path d="M21.19 2.66667C18.9867 0.45 15.6867 0 12 0C8.31 0 5.01333 0.45 2.81 2.66667C1.05667 4.43333 0 7.32333 0 12C0 16.6767 1.05667 19.5667 2.81 21.3333C5.01333 23.55 8.31333 24 12 24C15.6867 24 18.9867 23.55 21.1867 21.3333C22.9433 19.5667 24 16.6767 24 12C24 7.32333 22.9433 4.43333 21.19 2.66667Z" fill="#1E48C2"/>
<path d="M6.66663 17.5556C5.56329 17.5556 4.66663 16.6765 4.66663 15.5948V8.40524C4.66663 7.32354 5.56329 6.44446 6.66663 6.44446H17.3333C18.4366 6.44446 19.3333 7.32354 19.3333 8.40524V15.5948C19.3333 16.6765 18.4366 17.5556 17.3333 17.5556H6.66663ZM10.6633 11.183H5.66663V15.268C5.66663 15.9673 6.22663 16.5392 6.93329 16.5752H6.99996H8.17329L10.6633 11.183ZM12.4 7.42485H6.99996C6.28663 7.42485 5.70329 7.97387 5.66996 8.66668L5.66663 8.73204V9.22224H11.57L12.4 7.42485Z" fill="white"/>
</g>
<defs>
<clipPath id="clip0_2_416">
<rect width="24" height="24" fill="white"/>
</clipPath>
</defs>
</svg>
